X: 20
T: Morrison's
Z: Will The Whistler
S: https://thesession.org/tunes/71#setting50413
R: jig
M: 6/8
L: 1/8
K: Edor
|: ~E3 B3 | EGB AFD | EDE B3 | dcB AFD |
{F}E3 B3 | EGB AFD | G3 FGA | dAG FED :|
Bee fee | aee fed | Bee fee | a2 g fed |
Bee fee | aee fef | gfe dGA | BAG FGA |
Bee fee | aee fed | Bee fee | faf def |
gag {f}gfe | def g2 d | edc dGA | BAG FED ||

